X:924
T:Gavotta
T:from Suite in A for Colascione
C:Giuseppe Antonio Brescianello
Z:Transcribed by Frank Nordberg - http://www.musicaviva.com
F:http://abc.musicaviva.com/tunes/brescianello-giuseppe-antonio/brescianello-gavotta/brescianello-gavotta-gtr1.abc
V:1 Program 1 24 up %Classical guitar
V:2 Program 1 24 merge down %Classical guitar
m:Tn2 = o3/4(3n/o/n/ m/4
M:2/4
L:1/8
Q:1/4=108
K:A -8va
V:1
(ag) (ag)|(ae) fd| GB ed|(cB) cA|z f2 e-|
V:2
A,2E,2|A,2D2|E,4|A,4|D2C2|
%
V:1
e d2 c-|c B2 A|GB E2|(ag) (ag)|(ae) fd|
V:2
B,2A,2|G,2F,2|E,4|A,2E,2|A,2D2|
%
V:1
GB ed|(cB) cA| z f2 e-|ed cA|[A2B2] TG2|(G2A2):|
V:2
E,4|A,4|D2C2|B,2A,2|D2E,2|A,4:|
%
V:1
|:e^d ed|e^d eB|z c (fe)|z ^d3|z B eB|
V:2
|:E,2F,2|G,2E,2|A,4|B,2 B,A,|G,4|
%
V:1
z c (fe)|z e ^de|[G2B2e2] z2|z e fc|z d eB|
V:2
A,4|B,4|E,2 E=D|C3A,|B,3G,|
%
V:1
z c dA|GB E2|(ag) (ag)|(ae) cA|[A2B2] TG2|G2 A2:|
V:2
A,3D|E,4|A,2E,2|A,4|D2E,2|A,4:|
W:
W:
W:  From Musica Viva - http://www.musicaviva.com
W:  the Internet center for free sheet music downloads.

